yakuake/skins/materia-dark/tabs/minus_up.svg

<svg xmlns="http://www.w3.org/2000/svg" width="12" height="12" version="1.1" viewBox="0 0 12 12">
 <rect width="12" height="12" x="0" y="0" style="fill:#272727"/>
 <path style="fill:#dfdfdf" d="M 3,3 H 4.4140625 L 6,4.5859375 7.5859375,3 H 9 V 4.4140625 L 7.4140625,6 9,7.5859375 V 9 H 7.5859375 L 6,7.4140625 4.4140625,9 H 3 V 7.5859375 L 4.5859375,6 3,4.4140625 Z"/>
</svg>

<?xml version="1.0" encoding="UTF-8"?>
<svg width="12" height="12" version="1.1" viewBox="0 0 12 12" xmlns="http://www.w3.org/2000/svg">
 <rect width="12" height="12" fill="#272727"/>
 <path d="m3 3h1.4141l1.5859 1.5859 1.5859-1.5859h1.4141v1.4141l-1.5859 1.5859 1.5859 1.5859v1.4141h-1.4141l-1.5859-1.5859-1.5859 1.5859h-1.4141v-1.4141l1.5859-1.5859-1.5859-1.5859z" fill="#dfdfdf"/>
</svg>
